X: 1
T: Jeannie O' The Witchin' E'e   (D)
B: 8x40J 2C (MacNab Dances Vol 2)
O: trad.
S: Youtube - St. Andrews Summer School performance
Z: T. Traub 7-7-2013
B: Originally Ours p.165
B: MacNab v.2 #3
M: 6/8
L: 1/8
K: D
A/G/ |\
"D"FGA A2d | "D"FGA A2d | "D"FAd def | "A7"gee e2 A/G/ |\
"D"FGA A2d | "D"FGA A2d | "G"ddd "A7"e2a | "D"fdd d2 |]
A |\
"D"dfa agf | "G"gab "A7"a2f | "D"dfa agf | "A7"gab e2f |\
"G"gab "D"fga | "Em"egb "A7"c2A | "D"ABA "A7"Aag | "D"fdd d2 |]
